X: 10400
T: Donald MacLean
R: reel
M: 4/4
K: Aminor
|:e|e>Ad>B A<AG>B|B>dd>e B>GG>e|e>Ad>B A<AG>a|a>Gg>G A>AA:|
B|A>aA>a a>gA>B|B>dd>e B>GG>B|A>aA>a a>gA>a|a>Gg>G A>AA>B|
A>aA>a a>gA>B|B>dd>e B>GG>e|e>Ad>B A<AG>a|a>Gg>G A>AA||
|:g|G>AA>d B>GG>d|B>ee>g d>eA>B|G>AA>d B>GG>a|a>Gg>G A>AA:|
a|a>ee>g B>dd>e|B>GG>A B>gg>a|a>ee>g B>dd>a|a>Gg>G A>AA>a|
a>ee>g B>dd>e|B>GG>A B>gg>e|e>Ad>B A<AG>a|a>Gg>G A>AA||

